X: 111
T: Il est tel
N: Derived from Mar3011-Il_est_tel.krn
C: Johannes Martini
%%abc-version 2.0
%%abcx-abcm2ps-target-version 5.9.1 (29 Sep 2008)
%%abc-creator hum2abc beta
%%abcx-conversion-date 2019/02/17 07:19:43
%%abc-edited-by Jesse Rodin
%%abc-edited-by Chris Gage 10-06-2014
%%abcx-initial-encoding-date 2015/03/01/
%%humdrum-veritas 1603917694
%%humdrum-veritas-data 2238698215
%%linebreak <none>
%%barnumbers 0
L: 1/4
M: 4/2
Q: 1/2=120
V: 1 clef=treble
V: 2 clef=treble-8
V: 3 clef=treble-8
K: C
[V:1] z8 | 
[V:2] z8 | 
[V:3] G3AB2c2- | 
[V:1] z8 | 
[V:2] z4G3A | 
[V:3] c2BAG3F | 
[V:1] z8 | 
[V:2] B2c4BA | 
[V:3] G2A4GF | 
[V:1] G3AB2c2- | 
[V:2] G3FG2A2- | 
[V:3] E4z2e2 | 
[V:1] c2BAG3F | 
[V:2] A2GFE2C2 | 
[V:3] c2d2e4 | 
[V:1] G2A4GF | 
[V:2] E2F2D4 | 
[V:3] c2c3AB2 | 
[V:1] E2C2E2F2 | 
[V:2] C4z4 | 
[V:3] c6d2- | 
[V:1] D4C4 | 
[V:2] z2G2A2c2 | 
[V:3] dAB2c2A2 | 
[V:1] z4z2G2 | 
[V:2] B2d3cB2 | 
[V:3] G2FED2G2- | 
[V:1] A2c2B2d2- | 
[V:2] A4G2FE | 
[V:3] G2^F2G4 | 
[V:1] dcB2A4 | 
[V:2] D2G4F2 | 
[V:3] d4z2D2 | 
[V:1] G2FED2E2- | 
[V:2] G2A2B2c2- | 
[V:3] E2F2G2C2- | 
[V:1] EDG4^F2 | 
[V:2] cBAGA4 | 
[V:3] CDE2D4 | 
[V:1] G8 | 
[V:2] G4z2E2- | 
[V:3] z2E4C2- | 
[V:1] z2E4C2- | 
[V:2] E2C3DE2- | 
[V:3] CDE3FG2 | 
[V:1] CDE3FG2 | 
[V:2] EFG2A2G2- | 
[V:3] A2G3FED | 
[V:1] A2G3FED | 
[V:2] GFEDC2z2 | 
[V:3] C2z2c3B | 
[V:1] C2z2G4 | 
[V:2] c4B2c2 | 
[V:3] AGF2G2C2 | 
[V:1] F2G2E2D2- | 
[V:2] A2G4F2 | 
[V:3] D2E4A2 | 
[V:1] D2C4B,2 | 
[V:2] G2E2D4 | 
[V:3] B2G4F2 | 
[V:1] C8- | 
[V:2] C8- | 
[V:3] G4z2G2 | 
[V:1] C4z2G2 | 
[V:2] C4z4 | 
[V:3] A2c2B2B2 | 
[V:1] A2c2B2B2 | 
[V:2] z4z2G2 | 
[V:3] c3BG2d2 | 
[V:1] c3BG2d2 | 
[V:2] A2c2B2B2 | 
[V:3] c2e4d2 | 
[V:1] c2e4d2 | 
[V:2] c3BG2d2 | 
[V:3] e3dB4 | 
[V:1] e3dB4 | 
[V:2] c2e4d2 | 
[V:3] c4G4 | 
[V:1] c4d2e2- | 
[V:2] e2dcB2c2- | 
[V:3] C2E2D2C2- | 
[V:1] edc4B2 | 
[V:2] c2e2d4 | 
[V:3] C4G4 | 
[V:1] c2A3GE2 | 
[V:2] c4A2c2 | 
[V:3] C2F3GA2 | 
[V:1] F2G4FE | 
[V:2] d2e4dc | 
[V:3] D2C2E2F2 | 
[V:1] !fermata!D8 | 
[V:2] !fermata!B8 | 
[V:3] !fermata!G4D2G2- | 
[V:1] z2G3FG2 | 
[V:2] B4c4 | 
[V:3] GFEDC4 | 
[V:1] A2GFE4 | 
[V:2] z2c3Bc2 | 
[V:3] F3GA4 | 
[V:1] D2G4^F2 | 
[V:2] d2cBA4 | 
[V:3] B2G2D4 | 
[V:1] G4z2D2 | 
[V:2] G2c4B2 | 
[V:3] E2C2D4 | 
[V:1] E2G4F2 | 
[V:2] c4z2d2 | 
[V:3] C4_B,4 | 
[V:1] E2DCB,4 | 
[V:2] e2g4f2 | 
[V:3] C4D4 | 
[V:1] C2G3FED | 
[V:2] e2dcB4 | 
[V:3] C2E3FG2 | 
[V:1] E4C4 | 
[V:2] c2g3fed | 
[V:3] C8 | 
[V:1] z2C2E3F | 
[V:2] e4c4 | 
[V:3] C8 | 
[V:1] G2A2G2FE | 
[V:2] z2C2E3F | 
[V:3] c4z2G2 | 
[V:1] D2z2d2d2- | 
[V:2] G2A2G2FE | 
[V:3] B2c2B2AG | 
[V:1] dcd2B2A2- | 
[V:2] D2d2d3c | 
[V:3] A2G4F2- | 
[V:1] AGG4^F2 | 
[V:2] d2B2A4 | 
[V:3] F2G2D4 | 
[V:1] G8 | 
[V:2] G4z2G2 | 
[V:3] z2G4E2 | 
[V:1] z2G2A3B | 
[V:2] A2B2c3d | 
[V:3] F2G2C2c2- | 
[V:1] c4d2e2- | 
[V:2] e4d2g2- | 
[V:3] c2A2B2c2 | 
[V:1] e2dcB4 | 
[V:2] g2fed4 | 
[V:3] G2d4B2 | 
[V:1] z2A2B2G2- | 
[V:2] e2d4B2 | 
[V:3] c2d2G4 | 
[V:1] G2F2D2E2- | 
[V:2] c2d2G4 | 
[V:3] E2F2G2C2 | 
[V:1] E2DCB,2E2- | 
[V:2] E2F2G2C2- | 
[V:3] z2D2E2G2- | 
[V:1] EDC4B,2 | 
[V:2] C2E2D4 | 
[V:3] GFG2A2F2 | 
[V:1] C8 |]  
[V:2] C8 |]  
[V:3] G8 |]  



